X: 3
T: The Lairds Of Ryton
M: 9/8
L: 1/8
R: Slip Jig
S: John Bell MS (c1812)
Z: Dow
K: Gmaj
B2G Bdg fdB|dgf dgB deg|B2G Bdf gdB|cdc gec e2g:|
|:f2d dBd dBd|f2d dBd fdg|f2d dBd gdB|cdc gec e2g:|
